svgs/how_we_feel.svg

<svg width="192" height="192" viewBox="0 0 192 192" fill="none" xmlns="http://www.w3.org/2000/svg">
<path d="M96 55.2166L100.954 50.2517C116.587 34.5828 141.934 34.5828 157.567 50.2517L158.275 50.961C173.908 66.6299 173.908 92.0342 158.275 107.703L124.307 141.748C108.673 157.417 83.3266 157.417 67.6932 141.748L57.7858 131.818M96 55.2166L91.0463 50.2517C75.4129 34.5828 50.0661 34.5828 34.4327 50.2517L33.7251 50.961C18.0916 66.6299 18.0916 92.0342 33.7251 107.703L57.7858 131.818M96 55.2166L79.6323 71.6215C78.1194 73.1378 75.6665 73.1378 74.1535 71.6215L72.2931 69.7568C67.0168 64.4685 58.4622 64.4685 53.186 69.7568C47.9097 75.045 47.9097 83.619 53.186 88.9072L73.9287 109.697C75.5658 111.338 78.22 111.338 79.8571 109.697L119.707 69.7568C124.983 64.4685 133.538 64.4685 138.814 69.7568C144.09 75.045 144.09 83.619 138.814 88.9072L96 131.818C85.4474 142.395 68.3384 142.395 57.7858 131.818" stroke="black" stroke-width="12"/>
</svg>

<svg xmlns="http://www.w3.org/2000/svg" width="192" height="192" fill="none" viewBox="0 0 192 192"><path stroke="#000" stroke-width="12" d="m96 55.217 4.954-4.965c15.633-15.67 40.98-15.67 56.613 0l.708.709c15.633 15.669 15.633 41.073 0 56.742l-33.968 34.045c-15.634 15.669-40.98 15.669-56.614 0l-9.907-9.93M96 55.217l-4.954-4.965c-15.633-15.67-40.98-15.67-56.613 0l-.708.709c-15.633 15.669-15.633 41.073 0 56.742l24.06 24.115M96 55.217 79.632 71.622a3.87 3.87 0 0 1-5.479 0l-1.86-1.865c-5.276-5.288-13.83-5.288-19.107 0s-5.276 13.862 0 19.15l20.743 20.79a4.185 4.185 0 0 0 5.928 0l39.85-39.94c5.276-5.288 13.831-5.288 19.107 0s5.276 13.862 0 19.15L96 131.818c-10.553 10.577-27.662 10.577-38.214 0"/></svg>
